!!!COM: MacDowell, Edward
!!!CDT: 1860/12/18/-1908/01/23/
!!!OPR: 12 Etudes
!!!ODT: 1889///-1890///
!!!OTL: In the Forest
!!!OPS: Op. 39
!!!ONM: No. 5
!!!OMD: Allegretto con moto
**kern	**kern	**dynam/2
*staff2	*staff1	*staff1
*Ipiano	*Ipiano	*Ipiano
*clefF4	*clefG2	*clefG2
*k[f#c#g#d#a#e#]	*k[f#c#g#d#a#e#]	*k[f#c#g#d#a#e#]
*M3/4	*M3/4	*M3/4
*MM116	*MM116	*MM116
=1-	=1-	=1-
(8.D#^/L	(8.d#/L	mf
16C#/Jk	16c#/Jk	.
8BB#'/L)	8B#'/L)	.
8C#'/J	8c#'/J	.
8D#'\L	8d#'/L	.
8E#'\J	8e#'/J	.
=2	=2	=2
(8.D#^/L	(8.d#/L	.
16C#/Jk	16c#/Jk	.
8BB#'/L)	8B#'/L)	.
8C#'/J	8c#'/J	.
8D#'\L	8d#'/L	.
8E#'\J	8e#'/J	.
=3	=3	=3
*^	*^	*
(8.D#/L	2FF#\	(8.d#/L	[2A#\	p
16C#/Jk	.	16c#/Jk	.	.
8BB#'/L	.	8B#'/L	.	.
8C#'/J)	.	8c#'/J)	.	.
8D#'/L	&(4FF##\&)	8d#'/L	4A#\]	.
8E#'/J	.	8e#'/J	.	.
=4	=4	=4	=4	=4
(8.D#/L	2GG#\	(8.d#/L	2Bn\	.
16C#/Jk	.	16c#/Jk	.	.
8BB#'/L)	.	8B#'/L)	.	.
8C#'/J	.	8c#'/J	.	.
8D#'/L	&(4GG##\&)	8d#'/L	&(4B#\&)	.
8E#'/J	.	8e#'/J	.	.
=5	=5	=5	=5	=5
(8.G#/L	2AA#\	(8.g#/L	2c#\	.
16F#/Jk	.	16f#/Jk	.	.
8E#'/L	.	8e#'/L	.	.
8F#'/J)	.	8f#'/J)	.	.
8G#/L	&(4BBn\&)	8g#'/L	&(4c##\&)	.
8A#'/J	.	8a#'/J	.	.
*v	*v	*	*	*
*	*v	*v	*
=6	=6	=6
8.BB#\ (8.G#\L	(8.d#/ 8.g#/L	.
16F#\Jk	16f#/Jk	.
8D#'\L	8d#'/L)	.
8F#'\J)	8f#'/J	.
8A#'\L	8a#'\L	.
8d#'\J	8dd#'\J	.
=7	=7	=7
*^	*	*
(4d#/	[2.C#\	4f#/ 4a#/ (4dd#/	f
2A#/)	.	2f#/ 2a#/)	.
=8	=8	=8	=8
(4dn/	2.C#\]	4f#/ 4g#/ (4ddn/	p
2B/)	.	2f#/ 2g#/)	.
*v	*v	*	*
=9	=9	=9
4.C#\ (4.A#\	(8.f#^/ 8.dd#^/L	.
.	16cc#/Jk	.
.	8a#'/L)	.
8F#'\)	8f#'/J	.
8E#'\L	8e#'/L	.
8D#'\J	8d#'/J	.
=10	=10	=10
2C#/	4Bn'/ 4e#'/ 4g#'/	.
.	(4.c#/ 4.e#/ 4.a#/	.
4CC#/	.	.
.	8B/ 8e#/ 8g#/	.
=11	=11	=11
&(8FF#/&)	4A#/) 4f#/	.
16r	.	.
16BB#/	.	.
8C#'/L	4r	.
8D#'/J	.	.
8E#'\L	4r	.
8F#'\J	.	.
=12	=12	=12
4G#'\	4r	.
4.A#^\	4r	.
.	4B/ 4c#/ (4e#/	.
&(8G#\&)	.	.
=13	=13	=13
8F#'\	8A#/ 8c#/ 8f#/)	.
16r	8r	.
16BB#/	.	.
8C#'/L	4r	.
8D#'/J	.	.
8E#'\L	4r	.
8F#'\J	.	.
=14	=14	=14
4G#'\	4r	.
4.A#^\	4r	.
.	4B/ 4dn/ (4e#/	.
&(8G#\&)	.	.
=15	=15	=15
4F#'\	8A#/ 8c#/ 8f#/)	.
.	8r	.
2C#/	4r	.
.	4E#/ 4B/ (4c#/	.
=16	=16	=16
&(4FF#'/&) 4C#'/	8A#/ 8c#/ 8f#/)	.
.	8r	.
[2C#/	4r	.
.	4E#/ 4B/ 4c#/	.
=17	=17	=17
[2.FF#/ 2.C#/]	[2.A#/ [2.c#/ [2.f#/	.
=18	=18	=18
*^	*	*
2FF#/] 2C#/	2FFF#\	2A#/] 2c#/] 2f#/]	.
4r	4r	4r	.
*v	*v	*	*
=19	=19	=19
*k[b-e-a-d-g-]	*k[b-e-a-d-g-]	*k[b-e-a-d-g-]
4BB-\ 4F\	8.d-/ 8.f/L	pp
.	16en/Jk	.
8BB-'\ 8F'\L	8d-'/ 8f'/L	.
8BB-'\ 8F'\J	8d-'/ 8b-'/J	.
8BB-'\ 8G-'\L	8e-'/ 8bn'/L	.
8BB-'\ 8G-'\J	8e-'/ 8cc'/J	.
=20	=20	=20
8BB-'\ 8F'\	8d-'/ 8b-'/	.
8r	8r	.
2BB-\ 2F\ 2An\	2e-/ 2f/	.
=21	=21	=21
8BB-'\ 8F'\	8d-'/ 8b-'/	.
8r	8r	.
2BB-\ 2F\ 2An\	2e-/ 2f/	.
=22	=22	=22
4BB-\ 4F\ 4B-\	8.d-/ 8.f/L	.
.	16en/Jk	.
8BB-'\ 8F'\L	8d-'/ 8f'/L	.
8BB-'\ 8F'\J	8d-'/ 8b-'/J	.
8BB-'\ 8G-'\L	8e-'/ 8bn'/L	.
8BB-'\ 8G-'\J	8e-'/ 8cc'/J	.
=23	=23	=23
8BB-'\ 8F'\	8d-'/ 8b-'/	.
8r	8r	.
2BB-\ 2F\ 2An\	2e-/ 2f/	.
=24	=24	=24
8GG-'/ 8G-'/	8d-'/ 8g-'/ 8b-'/	.
8r	8r	.
2D-\ 2A-\	2d-/ 2f/	.
=25	=25	=25
*^	*^	*
(8.E-/L	2FF\	(8.e-/L	2c-\	.
16D-/Jk	.	16d-/Jk	.	.
8Cn'/L)	.	8cn'/L)	.	.
8D-'/J	.	8d-'/J	.	.
8E-'/L	&(4GG-\&)	8e-'/L	&(4B-\&)	.
8F/J	.	8f'/J	.	.
=26	=26	=26	=26	=26
(8.E-/L	2GGn\	(8.e-/L	2c-\	.
16D-/Jk	.	16d-/Jk	.	.
8Cn/L)	.	8cn'/L)	.	.
8D-'/J	.	8d-'/J	.	.
8E-'/L	4AA-\	8e-'/L	4c-\	.
8F'/J	.	8f'/J	.	.
=27	=27	=27	=27	=27
(8.A-/L	2.BB-\	(8.a-/L	2.d-\	.
16G-/Jk	.	16g-/Jk	.	.
8F'/L	.	8f'/L)	.	.
8G-'/J)	.	8g-'/J	.	.
8A-'/L	.	8a-'/L	.	.
8B-'/J	.	8b-'/J	.	.
*v	*v	*	*	*
*	*v	*v	*
=28	=28	=28
8.C-\ (8.A-\L	(8.e-/ 8.a-/L	.
16G-\Jk	16g-/Jk	.
8E-'\L)	(8e-'/L)	.
8G-'\J	8g-'/J)	.
8c-'\L	8cc-'\L	.
8e-'\J	8ee-'\J	.
=29	=29	=29
4An'\ 4cn'\ 4f'\	4g-'\ 4an'\ 4ccn'\ 4ff'\	ff
4A\ 4c\ (4e-\	2g-\ 2a\ 2cc\ 2ee-\	.
4D-\)	.	.
=30	=30	=30
4FF/ 4An/	4e-'/ 4g-'/ 4an'/ 4dd-'/	.
4C\ (4A\	2e-/ 2f/	.
[4FF/)	.	.
=31	=31	=31
4BBB-/ 4FF/]	8.dd-\ (8.ff\L	p
.	16een\Jk	.
8B-'\ 8f'\L	8dd-'\ 8ff'\L)	.
8B-'\ 8f'\J	8dd-'\ 8bb-'\J	.
8B-'\ 8g-'\ 8an'\L	8ee'\ 8bbn'\L	.
8B-'\ 8g-'\ 8a'\J	8ee'\ 8ccc'\J	.
=32	=32	=32
8B-'\ 8f'\ 8b-'\	8dd-'\ 8bb-'\	.
8r	8r	.
2B-\ 2f\ 2an\	2ee-\ 2ff\	.
=33	=33	=33
8B-'\ 8f'\ 8b-'\	8dd-'\ 8bb-'\	.
8r	8r	.
2B-\ 2f\ 2an\	2ee-\ 2ff\	.
=34	=34	=34
4BBB-/ 4FF/	8.dd-\ (8.ff\L	p
.	16een\Jk	.
8B-'\ 8f'\L	8dd-'\ 8ff'\L)	.
8B-'\ 8f'\J	8dd-'\ 8bb-'\J	.
8B-'\ 8g-'\ 8an'\L	8ee'\ 8bbn'\L	.
8B-'\ 8g-'\ 8a'\J	8ee'\ 8ccc'\J	.
=35	=35	=35
8B-'\ 8f'\ 8b-'\	8dd-'\ 8bb-'\	.
8r	8r	.
2B-\ 2f\ 2an\	2ee-\ 2ff\	.
=36	=36	=36
8G-'\ 8d-'\ 8g-'\	8b-'\ 8gg-'\ 8bb-'\	.
8r	8r	.
2d-\ 2f\	2a-\ 2dd-\ 2ff\	.
=37	=37	=37
8.A-\ (8.e-\L	8.f\ 8.cc-\ (8.ee-\L	.
16d-\Jk	16dd-\Jk	.
8c'\L)	8ccn'\L)	.
8d-'\J	8dd-'\J	.
8e-'\L	8ee-'\L	.
8f'\J	8ff'\J	.
=38	=38	=38
(8.e-^\L	(8.ee-^\L	.
16d-\Jk	16dd-\Jk	.
8c'\L	8cc'\L)	.
8d-'\J)	8dd-'\J	.
8e-'\L	8ee-'\L	.
8f'\J	8ff'\J	.
=39	=39	=39
8.An^\ (8.e-^\L	8f'\ 8ccn'\ 8ee-'\	.
.	8r	.
16d-\Jk	.	.
8c'\L	4r	.
8d-'\J)	.	.
8e-'\L	4r	.
8f'\J	.	.
=40	=40	=40
*	*^	*
4r	4r	(8.d#/L	.
.	.	16c#/Jk	.
4r	4r	8B#'/L)	.
.	.	8c#'/J	.
4GG#/ 4C#/	8d#/L	4Bn\	.
.	8e#/J	.	.
*	*v	*v	*
=41	=41	=41
*k[f#c#g#d#a#e#]	*k[f#c#g#d#a#e#]	*k[f#c#g#d#a#e#]
*^	*^	*
4C#/	(2FF#\	(8.d#/L	[2A#\	p
.	.	16c#/Jk	.	.
8BB#'/L	.	8B#'/L	.	.
8C#'/J	.	8c#'/J)	.	.
8D#'/L	4FF##\)	8d#/L	4A#'\]	.
8E#'/J	.	8e#/J	.	.
=42	=42	=42	=42	=42
8.D#/L	(2GG#\	8.d#/L	(2Bn\	.
16C#/Jk	.	16c#/Jk	.	.
8BB#'/L	.	8B#'/L	.	.
&(8C#'/J&)	.	&(8c#'/J&)	.	.
8D#'/L	4GG##\)	8d#'/L	4B#\)	.
8E#'/J	.	8e#'/J	.	.
=43	=43	=43	=43	=43
(8.G#/L	2AA#\	(8.g#/L	2c#\	.
16F#/Jk	.	16f#/Jk	.	.
8E#'/L	.	8e#'/L)	.	.
8F#'/J)	.	8f#'/J	.	.
8G#'/L	&(4BBn\&)	8g#'/L	&(4c##\&)	.
8A#'/J	.	8a#'/J	.	.
*v	*v	*	*	*
*	*v	*v	*
=44	=44	=44
8.BB#\ (8.G#\L	(8.d#/ 8.g#/L	.
16F#\Jk	16f#/Jk	.
8D#'\L	8d#'/L)	.
8F#'\J)	8f#'/J	.
8A#'\L	8a#'\L	.
8d#'\J	8dd#'\J	.
=45	=45	=45
*^	*	*
(4d#/	[2.C#\	4f#/ 4a#/ 4dd#/	.
2A#/)	.	2f#/ 2a#/	.
=46	=46	=46	=46
(4dn/	2.C#\]	4f#/ 4g#/ (4ddn/	p
2B/)	.	2f#/ 2g#/)	.
*v	*v	*	*
=47	=47	=47
4C#'\ 4A#'\	(8.f#/ 8.dd#/L	.
.	16cc#/Jk	.
4r	8a#'/L)	.
.	8f#'/J	.
4r	8e#'/L	.
.	[8d#/J	.
=48	=48	=48
*^	*^	*
[2.D#/	8GG#'\	8B#/ 8f#/ 8a#/	2.d#\]	.
.	8r	8r	.	.
.	8GG#'\	8B#/ 8f#/ 8a#/	.	.
.	8r	8r	.	.
.	4r	4r	.	.
=49	=49	=49	=49	=49
2.D#/_	8GG#'\	8c#/ 8f#/ 8g##/	[2.d#\	.
.	8r	8r	.	.
.	8GG#'\	8c#/ 8f#/ 8g##/	.	.
.	8r	8r	.	.
.	4r	4r	.	.
=50	=50	=50	=50	=50
2.D#/]	8GG#'\	8B#/ 8f#/ 8a#/	2.d#\]	.
.	8r	8r	.	.
.	8GG#'\	8B#/ 8f#/ 8a#/	.	.
.	8r	8r	.	.
.	4r	4r	.	.
*v	*v	*	*	*
*	*v	*v	*
=51	=51	=51
4C#'\ 4A#'\	(8.f#/ 8.dd#/L	.
.	16cc#/Jk	.
8r	8a#'/L)	.
8F#'\	8f#'/J	.
8E#'\L	8e#'/L	.
8D#'\J	8d#'/J	.
=52	=52	=52
2C#/	4Bn'/ 4e#'/ 4g#'/	.
.	(4.c#/ 4.e#/ 4.a#/	.
&(4CC#/&)	.	.
.	8B/ 8e#/ 8g#/	.
=53	=53	=53
8FF#/	4A#/) 4f#/	.
16r	.	.
16BB#/	.	.
8C#'/L	4r	.
8D#'/J	.	.
8E#'\L	4r	.
8F#'\J	.	.
=54	=54	=54
4G#'\	4r	.
4.A#^\	4r	.
.	4B/ 4c#/ (4e#/	.
8G#\	.	.
=55	=55	=55
&(8F#'\&)	8A#/ 8c#/ 8f#/)	.
16r	8r	.
16BB#/	.	.
8C#'/L	4r	.
8D#'/J	.	.
8E#'\L	4r	.
8F#'\J	.	.
=56	=56	=56
4G#'\	4r	.
4.A#^\	4r	.
.	4B/ 4dn/ (4e#/	.
8G#\	.	.
=57	=57	=57
&(4F#'\&)	8A#/ 8c#/ 8f#/)	.
.	8r	.
[2C#/	4r	.
.	4E#/ 4B/ (4c#/	.
=58	=58	=58
4FF#'/ 4C#'/]	8A#/ 8c#/ 8f#/)	.
.	8r	.
[2C#/	4r	.
.	4E#/ 4B/ 4c#/	.
=59	=59	=59
[2.FF#/ 2.C#/_	[2.A#/ [2.c#/ [2.f#/	ppp
=60	=60	=60
*^	*	*
2FF#/] 2C#/]	2FFF#\	2A#/] 2c#/] 2f#/]	.
4r	4r	4r	.
*v	*v	*	*
==	==	==
*-	*-	*-
!!!ENC: Craig Stuart Sapp
!!!END: 2004/09/02/
